Newaita-dark/apps/64/org.kde.archUpdate.svg

<svg height="64pt" viewBox="0 0 64 64" width="64pt" xmlns="http://www.w3.org/2000/svg" xmlns:xlink="http://www.w3.org/1999/xlink"><linearGradient id="a"><stop offset="0" stop-opacity=".313726"/><stop offset=".222222" stop-opacity=".27451"/><stop offset="1" stop-opacity="0"/></linearGradient><radialGradient id="b" cx="450.908936" cy="189.579361" gradientTransform="matrix(.00000022 -.117199 -.175798 -.00000015 40.852373 110.071399)" gradientUnits="userSpaceOnUse" r="21.166656" xlink:href="#a"/><radialGradient id="c" cx="450.908936" cy="189.579361" gradientTransform="matrix(-.00000022 .117199 .175798 .00000015 -24.975854 3.387351)" gradientUnits="userSpaceOnUse" r="21.166656" xlink:href="#a"/><radialGradient id="d" cx="450.908936" cy="189.579361" gradientTransform="matrix(-.00000022 -.117199 .175798 -.00000015 -24.975854 110.071399)" gradientUnits="userSpaceOnUse" r="21.166656" xlink:href="#a"/><radialGradient id="e" cx="450.908936" cy="189.579361" gradientTransform="matrix(.00000022 .117199 -.175798 .00000015 40.85237 3.38735)" gradientUnits="userSpaceOnUse" r="21.166656" xlink:href="#a"/><linearGradient id="f" gradientUnits="userSpaceOnUse" x1="31.753048" x2="31.753048" y1="56.067868" y2="5.79221000013"><stop offset="0" stop-color="#42a5f5"/><stop offset="1" stop-color="#64b5f6"/></linearGradient><radialGradient id="g" cx="450.908936" cy="189.579361" gradientTransform="matrix(.00000022 -.0976654 -.175798 -.00000013 89.143449 101.181051)" gradientUnits="userSpaceOnUse" r="21.166656" xlink:href="#a"/><radialGradient id="h" cx="450.908936" cy="189.579361" gradientTransform="matrix(-.00000022 .0976654 .175798 .00000013 23.31521 12.277698)" gradientUnits="userSpaceOnUse" r="21.166656" xlink:href="#a"/><radialGradient id="i" cx="450.908936" cy="189.579361" gradientTransform="matrix(-.00000022 -.0976654 .175798 -.00000013 23.31521 101.181051)" gradientUnits="userSpaceOnUse" r="21.166656" xlink:href="#a"/><radialGradient id="j" cx="450.908936" cy="189.579361" gradientTransform="matrix(.00000022 .0976654 -.175798 .00000013 89.143447 12.277698)" gradientUnits="userSpaceOnUse" r="21.166656" xlink:href="#a"/><path d="m7.9375 56.730469h3.308594v-1.984375h-3.308594zm0 0" fill="url(#b)"/><path d="m7.9375 56.730469h-3.308594v1.984375h3.308594zm0 0" fill="url(#c)"/><path d="m7.9375 56.730469h-3.308594v-1.984375h3.308594zm0 0" fill="url(#d)"/><path d="m7.9375 56.730469h3.308594v1.984375h-3.308594zm0 0" fill="url(#e)"/><path d="m31.875 5.804688c-2.234375 5.472656-3.589844 9.058593-6.074219 14.371093 1.523438 1.613281 3.394531 3.488281 6.433594 5.613281-3.265625-1.34375-5.492187-2.6875-7.15625-4.089843-3.183594 6.640625-8.171875 16.09375-18.285156 34.269531 7.945312-4.589844 14.109375-7.421875 19.851562-8.5-.246093-1.058594-.378906-2.210938-.367187-3.40625l.003906-.25c.128906-5.09375 2.777344-9.011719 5.917969-8.746094 3.136719.265625 5.582031 4.613282 5.457031 9.707032-.027344.960937-.136719 1.882812-.328125 2.738281 5.683594 1.109375 11.785156 3.929687 19.628906 8.457031-1.546875-2.847656-2.933593-5.414062-4.25-7.859375-2.078125-1.609375-4.242187-3.703125-8.660156-5.96875 3.035156.789063 5.210937 1.703125 6.90625 2.71875-13.402344-24.953125-14.484375-28.269531-19.078125-39.054687zm0 0" fill="url(#f)"/><path d="m31.875 5.804688c-2.234375 5.472656-3.589844 9.058593-6.074219 14.371093.261719.277344.53125.5625.820313.855469 1.988281-4.386719 3.277344-7.753906 5.253906-12.59375 4.359375 10.234375 5.566406 13.757812 17.121094 35.398438.722656.328124 1.367187.667968 1.957031 1.023437-13.402344-24.953125-14.484375-28.269531-19.078125-39.054687zm-6.796875 15.894531c-3.183594 6.640625-8.171875 16.09375-18.285156 34.269531.726562-.421875 1.4375-.824219 2.136719-1.214844 8.691406-15.683594 13.199218-24.265625 16.148437-30.417968 1.21875-.515626 3.699219.476562 7.171875 1.46875-1.25-1.453126-4.300781-1.820313-6.265625-3.390626-.320313-.238281-.621094-.472656-.90625-.714843zm18.582031 20.476562c4.445313 2.253907 8.253906 6.308594 9.046875 8.570313.703125 1.304687 1.429688 2.648437 2.183594 4.046875.675781.378906 1.363281.769531 2.066406 1.175781-1.546875-2.847656-2.933593-5.414062-4.25-7.859375-.78125-.605469-1.578125-1.277344-2.5-2.003906-3.902343-2.605469-5.292969-3.5625-6.546875-3.929688zm-17.324218 3.335938c-.027344.308593-.046876.621093-.054688.9375l-.003906.25c-.003906.28125.003906.5625.015625.835937.117187-.023437.234375-.046875.351562-.066406-.144531-.625-.25-1.277344-.308593-1.957031zm11.265624.207031c-.054687.621094-.144531 1.222656-.273437 1.792969.109375.019531.214844.042969.320313.0625.003906-.054688.003906-.109375.007812-.164063.011719-.574218-.007812-1.140625-.054688-1.691406zm0 0" fill="#fff" fill-opacity=".392157"/><path d="m26.199219 19.308594c-.128907.285156-.261719.574218-.398438.867187.695313.738281 1.46875 1.535157 2.390625 2.382813 1.144532.652344 2.320313 2.433594 3.890625 3.078125-2.777343-1.941407-4.425781-4.808594-5.882812-6.328125zm5.707031 14.460937c-3.011719-.007812-5.5 3.820313-5.625 8.753907l-.003906.253906c-.003906.261718.003906.523437.015625.78125.203125-4.96875 2.816406-8.753906 5.90625-8.492188 2.925781.25 5.25 4.046875 5.445312 8.691406.003907-.089843.007813-.179687.011719-.269531.125-5.097656-2.320312-9.441406-5.457031-9.707031-.097657-.007812-.195313-.011719-.292969-.011719zm12.414062 8.40625c1.964844 1.007813 3.207032.65625 4.472657 1.570313.804687.355468 1.515625.726562 2.160156 1.113281-.335937-.628906-.660156-1.234375-.984375-1.835937-3-.515626-3.332031-.515626-5.648438-.847657zm-17.90625 4.050781c-5.421874 1.058594-11.230468 3.675782-18.574218 7.851563-.347656.628906-.6875 1.242187-1.046875 1.890625 7.945312-4.589844 14.109375-7.421875 19.851562-8.5-.09375-.402344-.171875-.816406-.230469-1.242188zm11.128907.039063c-.054688.429687-.125.84375-.214844 1.246094 5.683594 1.109375 11.785156 3.929687 19.628906 8.457031-.347656-.636719-.683593-1.257812-1.015625-1.867188-7.261718-4.132812-13.027344-6.746093-18.398437-7.835937zm0 0" fill-opacity=".235294"/><path d="m254.975651-168.566934c-17.873293 43.777069-28.716008 72.46183-48.58911 114.957772 12.186336 12.905018 27.153657 27.903585 51.463836 44.901962-26.122506-10.748974-43.933305-21.497947-57.244534-32.715626-25.466318 53.119928-65.368757 128.737706-146.267282 274.130072 63.556431-36.715244 112.864222-59.36933 158.797336-67.993507-1.968562-8.467941-3.030961-17.685811-2.93722-27.247398l.031247-1.999809c1.031152-40.746109 22.216628-72.086866 47.339229-69.962069 25.091354 2.124797 44.651986 36.902726 43.652082 77.648835-.218729 7.686766-1.093646 15.061062-2.62475 21.904158 45.464409 8.874153 94.272248 31.434498 157.016256 67.64979-12.373818-22.779075-23.466509-43.308364-33.996753-62.868996-16.623413-12.873771-33.93426-29.622171-69.274635-47.745441 24.278932 6.311897 41.68352 13.623699 55.244724 21.747923-107.208512-199.605938-115.863935-226.134655-152.610426-312.407666zm0 0" fill="none" stroke="#212121" stroke-width="3" transform="matrix(.125012 0 0 .125012 0 26.877566)"/><path d="m56.230469 56.730469h3.304687v-1.65625h-3.304687zm0 0" fill="url(#g)"/><path d="m56.230469 56.730469h-3.308594v1.652343h3.308594zm0 0" fill="url(#h)"/><path d="m56.230469 56.730469h-3.308594v-1.65625h3.308594zm0 0" fill="url(#i)"/><path d="m56.230469 56.730469h3.304687v1.652343h-3.304687zm0 0" fill="url(#j)"/></svg>

<?xml version="1.0" encoding="UTF-8"?>
<svg xmlns="http://www.w3.org/2000/svg" xmlns:xlink="http://www.w3.org/1999/xlink" width="64pt" height="64pt" viewBox="0 0 64 64" version="1.1">
<defs>
<radialGradient id="radial0" gradientUnits="userSpaceOnUse" cx="450.908936" cy="189.579361" fx="450.908936" fy="189.579361" r="21.166656" gradientTransform="matrix(0.000000217713,-0.117199,-0.175798,-0.000000152308,40.852373,110.071399)">
<stop offset="0" style="stop-color:rgb(0%,0%,0%);stop-opacity:0.313726;"/>
<stop offset="0.222222" style="stop-color:rgb(0%,0%,0%);stop-opacity:0.27451;"/>
<stop offset="1" style="stop-color:rgb(0%,0%,0%);stop-opacity:0;"/>
</radialGradient>
<radialGradient id="radial1" gradientUnits="userSpaceOnUse" cx="450.908936" cy="189.579361" fx="450.908936" fy="189.579361" r="21.166656" gradientTransform="matrix(-0.000000217713,0.117199,0.175798,0.000000152308,-24.975854,3.387351)">
<stop offset="0" style="stop-color:rgb(0%,0%,0%);stop-opacity:0.313726;"/>
<stop offset="0.222222" style="stop-color:rgb(0%,0%,0%);stop-opacity:0.27451;"/>
<stop offset="1" style="stop-color:rgb(0%,0%,0%);stop-opacity:0;"/>
</radialGradient>
<radialGradient id="radial2" gradientUnits="userSpaceOnUse" cx="450.908936" cy="189.579361" fx="450.908936" fy="189.579361" r="21.166656" gradientTransform="matrix(-0.000000217713,-0.117199,0.175798,-0.000000152308,-24.975854,110.071399)">
<stop offset="0" style="stop-color:rgb(0%,0%,0%);stop-opacity:0.313726;"/>
<stop offset="0.222222" style="stop-color:rgb(0%,0%,0%);stop-opacity:0.27451;"/>
<stop offset="1" style="stop-color:rgb(0%,0%,0%);stop-opacity:0;"/>
</radialGradient>
<radialGradient id="radial3" gradientUnits="userSpaceOnUse" cx="450.908936" cy="189.579361" fx="450.908936" fy="189.579361" r="21.166656" gradientTransform="matrix(0.000000217713,0.117199,-0.175798,0.000000152308,40.85237,3.38735)">
<stop offset="0" style="stop-color:rgb(0%,0%,0%);stop-opacity:0.313726;"/>
<stop offset="0.222222" style="stop-color:rgb(0%,0%,0%);stop-opacity:0.27451;"/>
<stop offset="1" style="stop-color:rgb(0%,0%,0%);stop-opacity:0;"/>
</radialGradient>
<linearGradient id="linear0" gradientUnits="userSpaceOnUse" x1="254" y1="233.5" x2="254" y2="-168.666656" gradientTransform="matrix(0.125012,0,0,0.125012,0,26.877566)">
<stop offset="0" style="stop-color:rgb(25.882354%,64.705884%,96.078432%);stop-opacity:1;"/>
<stop offset="1" style="stop-color:rgb(39.215687%,70.980394%,96.470588%);stop-opacity:1;"/>
</linearGradient>
<radialGradient id="radial4" gradientUnits="userSpaceOnUse" cx="450.908936" cy="189.579361" fx="450.908936" fy="189.579361" r="21.166656" gradientTransform="matrix(0.000000217713,-0.0976654,-0.175798,-0.000000126923,89.143449,101.181051)">
<stop offset="0" style="stop-color:rgb(0%,0%,0%);stop-opacity:0.313726;"/>
<stop offset="0.222222" style="stop-color:rgb(0%,0%,0%);stop-opacity:0.27451;"/>
<stop offset="1" style="stop-color:rgb(0%,0%,0%);stop-opacity:0;"/>
</radialGradient>
<radialGradient id="radial5" gradientUnits="userSpaceOnUse" cx="450.908936" cy="189.579361" fx="450.908936" fy="189.579361" r="21.166656" gradientTransform="matrix(-0.000000217713,0.0976654,0.175798,0.000000126923,23.31521,12.277698)">
<stop offset="0" style="stop-color:rgb(0%,0%,0%);stop-opacity:0.313726;"/>
<stop offset="0.222222" style="stop-color:rgb(0%,0%,0%);stop-opacity:0.27451;"/>
<stop offset="1" style="stop-color:rgb(0%,0%,0%);stop-opacity:0;"/>
</radialGradient>
<radialGradient id="radial6" gradientUnits="userSpaceOnUse" cx="450.908936" cy="189.579361" fx="450.908936" fy="189.579361" r="21.166656" gradientTransform="matrix(-0.000000217713,-0.0976654,0.175798,-0.000000126923,23.31521,101.181051)">
<stop offset="0" style="stop-color:rgb(0%,0%,0%);stop-opacity:0.313726;"/>
<stop offset="0.222222" style="stop-color:rgb(0%,0%,0%);stop-opacity:0.27451;"/>
<stop offset="1" style="stop-color:rgb(0%,0%,0%);stop-opacity:0;"/>
</radialGradient>
<radialGradient id="radial7" gradientUnits="userSpaceOnUse" cx="450.908936" cy="189.579361" fx="450.908936" fy="189.579361" r="21.166656" gradientTransform="matrix(0.000000217713,0.0976654,-0.175798,0.000000126923,89.143447,12.277698)">
<stop offset="0" style="stop-color:rgb(0%,0%,0%);stop-opacity:0.313726;"/>
<stop offset="0.222222" style="stop-color:rgb(0%,0%,0%);stop-opacity:0.27451;"/>
<stop offset="1" style="stop-color:rgb(0%,0%,0%);stop-opacity:0;"/>
</radialGradient>
</defs>
<g id="surface1">
<path style=" stroke:none;fill-rule:nonzero;fill:url(#radial0);" d="M 7.9375 56.730469 L 11.246094 56.730469 L 11.246094 54.746094 L 7.9375 54.746094 Z M 7.9375 56.730469 "/>
<path style=" stroke:none;fill-rule:nonzero;fill:url(#radial1);" d="M 7.9375 56.730469 L 4.628906 56.730469 L 4.628906 58.714844 L 7.9375 58.714844 Z M 7.9375 56.730469 "/>
<path style=" stroke:none;fill-rule:nonzero;fill:url(#radial2);" d="M 7.9375 56.730469 L 4.628906 56.730469 L 4.628906 54.746094 L 7.9375 54.746094 Z M 7.9375 56.730469 "/>
<path style=" stroke:none;fill-rule:nonzero;fill:url(#radial3);" d="M 7.9375 56.730469 L 11.246094 56.730469 L 11.246094 58.714844 L 7.9375 58.714844 Z M 7.9375 56.730469 "/>
<path style=" stroke:none;fill-rule:nonzero;fill:url(#linear0);" d="M 31.875 5.804688 C 29.640625 11.277344 28.285156 14.863281 25.800781 20.175781 C 27.324219 21.789062 29.195312 23.664062 32.234375 25.789062 C 28.96875 24.445312 26.742188 23.101562 25.078125 21.699219 C 21.894531 28.339844 16.90625 37.792969 6.792969 55.96875 C 14.738281 51.378906 20.902344 48.546875 26.644531 47.46875 C 26.398438 46.410156 26.265625 45.257812 26.277344 44.0625 L 26.28125 43.8125 C 26.410156 38.71875 29.058594 34.800781 32.199219 35.066406 C 35.335938 35.332031 37.78125 39.679688 37.65625 44.773438 C 37.628906 45.734375 37.519531 46.65625 37.328125 47.511719 C 43.011719 48.621094 49.113281 51.441406 56.957031 55.96875 C 55.410156 53.121094 54.023438 50.554688 52.707031 48.109375 C 50.628906 46.5 48.464844 44.40625 44.046875 42.140625 C 47.082031 42.929688 49.257812 43.84375 50.953125 44.859375 C 37.550781 19.90625 36.46875 16.589844 31.875 5.804688 Z M 31.875 5.804688 "/>
<path style=" stroke:none;fill-rule:nonzero;fill:rgb(100%,100%,100%);fill-opacity:0.392157;" d="M 31.875 5.804688 Z M 31.875 5.804688 C 29.640625 11.277344 28.285156 14.863281 25.800781 20.175781 C 26.0625 20.453125 26.332031 20.738281 26.621094 21.03125 C 28.609375 16.644531 29.898438 13.277344 31.875 8.4375 C 36.234375 18.671875 37.441406 22.195312 48.996094 43.835938 C 49.71875 44.164062 50.363281 44.503906 50.953125 44.859375 C 37.550781 19.90625 36.46875 16.589844 31.875 5.804688 Z M 25.078125 21.699219 C 21.894531 28.339844 16.90625 37.792969 6.792969 55.96875 C 7.519531 55.546875 8.230469 55.144531 8.929688 54.753906 C 17.621094 39.070312 22.128906 30.488281 25.078125 24.335938 C 26.296875 23.820312 28.777344 24.8125 32.25 25.804688 C 31 24.351562 27.949219 23.984375 25.984375 22.414062 C 25.664062 22.175781 25.363281 21.941406 25.078125 21.699219 Z M 43.660156 42.175781 C 48.105469 44.429688 51.914062 48.484375 52.707031 50.746094 C 53.410156 52.050781 54.136719 53.394531 54.890625 54.792969 C 55.566406 55.171875 56.253906 55.5625 56.957031 55.96875 C 55.410156 53.121094 54.023438 50.554688 52.707031 48.109375 C 51.925781 47.503906 51.128906 46.832031 50.207031 46.105469 C 46.304688 43.5 44.914062 42.542969 43.660156 42.175781 Z M 26.335938 45.511719 C 26.308594 45.820312 26.289062 46.132812 26.28125 46.449219 L 26.277344 46.699219 C 26.273438 46.980469 26.28125 47.261719 26.292969 47.535156 C 26.410156 47.511719 26.527344 47.488281 26.644531 47.46875 C 26.5 46.84375 26.394531 46.191406 26.335938 45.511719 Z M 37.601562 45.71875 C 37.546875 46.339844 37.457031 46.941406 37.328125 47.511719 C 37.4375 47.53125 37.542969 47.554688 37.648438 47.574219 C 37.652344 47.519531 37.652344 47.464844 37.65625 47.410156 C 37.667969 46.835938 37.648438 46.269531 37.601562 45.71875 Z M 37.601562 45.71875 "/>
<path style=" stroke:none;fill-rule:nonzero;fill:rgb(0%,0%,0%);fill-opacity:0.235294;" d="M 26.199219 19.308594 C 26.070312 19.59375 25.9375 19.882812 25.800781 20.175781 C 26.496094 20.914062 27.269531 21.710938 28.191406 22.558594 C 29.335938 23.210938 30.511719 24.992188 32.082031 25.636719 C 29.304688 23.695312 27.65625 20.828125 26.199219 19.308594 Z M 31.90625 33.769531 C 28.894531 33.761719 26.40625 37.589844 26.28125 42.523438 L 26.277344 42.777344 C 26.273438 43.039062 26.28125 43.300781 26.292969 43.558594 C 26.496094 38.589844 29.109375 34.804688 32.199219 35.066406 C 35.125 35.316406 37.449219 39.113281 37.644531 43.757812 C 37.648438 43.667969 37.652344 43.578125 37.65625 43.488281 C 37.78125 38.390625 35.335938 34.046875 32.199219 33.78125 C 32.101562 33.773438 32.003906 33.769531 31.90625 33.769531 Z M 44.320312 42.175781 C 46.285156 43.183594 47.527344 42.832031 48.792969 43.746094 C 49.597656 44.101562 50.308594 44.472656 50.953125 44.859375 C 50.617188 44.230469 50.292969 43.625 49.96875 43.023438 C 46.96875 42.507812 46.636719 42.507812 44.320312 42.175781 Z M 26.414062 46.226562 C 20.992188 47.285156 15.183594 49.902344 7.839844 54.078125 C 7.492188 54.707031 7.152344 55.320312 6.792969 55.96875 C 14.738281 51.378906 20.902344 48.546875 26.644531 47.46875 C 26.550781 47.066406 26.472656 46.652344 26.414062 46.226562 Z M 37.542969 46.265625 C 37.488281 46.695312 37.417969 47.109375 37.328125 47.511719 C 43.011719 48.621094 49.113281 51.441406 56.957031 55.96875 C 56.609375 55.332031 56.273438 54.710938 55.941406 54.101562 C 48.679688 49.96875 42.914062 47.355469 37.542969 46.265625 Z M 37.542969 46.265625 "/>
<path style="fill:none;stroke-width:3;stroke-linecap:butt;stroke-linejoin:miter;stroke:rgb(12.941177%,12.941177%,12.941177%);stroke-opacity:1;stroke-miterlimit:4;" d="M 254.975651 -168.566934 C 237.102358 -124.789865 226.259643 -96.105104 206.386541 -53.609162 C 218.572877 -40.704144 233.540198 -25.705577 257.850377 -8.7072 C 231.727871 -19.456174 213.917072 -30.205147 200.605843 -41.422826 C 175.139525 11.697102 135.237086 87.31488 54.338561 232.707246 C 117.894992 195.992002 167.202783 173.337916 213.135897 164.713739 C 211.167335 156.245798 210.104936 147.027928 210.198677 137.466341 L 210.229924 135.466532 C 211.261076 94.720423 232.446552 63.379666 257.569153 65.504463 C 282.660507 67.62926 302.221139 102.407189 301.221235 143.153298 C 301.002506 150.840064 300.127589 158.21436 298.596485 165.057456 C 344.060894 173.931609 392.868733 196.491954 455.612741 232.707246 C 443.238923 209.928171 432.146232 189.398882 421.615988 169.83825 C 404.992575 156.964479 387.681728 140.216079 352.341353 122.092809 C 376.620285 128.404706 394.024873 135.716508 407.586077 143.840732 C 300.377565 -55.765206 291.722142 -82.293923 254.975651 -168.566934 Z M 254.975651 -168.566934 " transform="matrix(0.125012,0,0,0.125012,0,26.877566)"/>
<path style=" stroke:none;fill-rule:nonzero;fill:url(#radial4);" d="M 56.230469 56.730469 L 59.535156 56.730469 L 59.535156 55.074219 L 56.230469 55.074219 Z M 56.230469 56.730469 "/>
<path style=" stroke:none;fill-rule:nonzero;fill:url(#radial5);" d="M 56.230469 56.730469 L 52.921875 56.730469 L 52.921875 58.382812 L 56.230469 58.382812 Z M 56.230469 56.730469 "/>
<path style=" stroke:none;fill-rule:nonzero;fill:url(#radial6);" d="M 56.230469 56.730469 L 52.921875 56.730469 L 52.921875 55.074219 L 56.230469 55.074219 Z M 56.230469 56.730469 "/>
<path style=" stroke:none;fill-rule:nonzero;fill:url(#radial7);" d="M 56.230469 56.730469 L 59.535156 56.730469 L 59.535156 58.382812 L 56.230469 58.382812 Z M 56.230469 56.730469 "/>
</g>
</svg>
